X: 13
T:13.  Going to Hell in a Handcar (aeae tuning)
C:c 1984 Harry Bolick  
R:Breakdown
O:United States
A:Brooklyn, New York
M:4/4
L:1/8
Q:400
K:Am
CB, |: "Am"  A,CEG A2 AA | c2 c2 c2 AB | c2 c2 B2 A2 |"E" e4 e4 |
 "Am"  aged A2>A2 |"G" G2 "Am"A6 |aged "G"B2>B2|"Am"A2 "G"B6 |
 "Am"  aged A2>A2 |"G" G2 "Am" A4 AB |c2 c2 BA "G"G2|"Am" A8:|
